X: 35021
T: Rollicking Boys Of Tandragee, The
R: jig
M: 6/8
K: Eminor
BAB EEE|BAB d^cd|BAB DDE|FED FGA|
BAB EEE|BAB def|edB AFA|BEE E2A|
BAB EEE|BAB ddd|BAB DDE|FED E/F/GA|
BAB EEE|BAB def|edB AFA|BEE E2A||
|:Bee edB|def afd|edd dBA|Bdd d^cd|
Bee edB|def afd|edB AFA|1 BEE E2A:|2 BEE E3||

